Yaru++/mimetypes/48/application-mspowerpoint.svg

<svg height="48" viewBox="0 0 12.699375 12.699376" width="48" xmlns="http://www.w3.org/2000/svg" xmlns:xlink="http://www.w3.org/1999/xlink"><linearGradient id="a" gradientUnits="userSpaceOnUse" x1="6.35044508" x2="6.35044508" y1=".13228552" y2="12.30252024"><stop offset="0" stop-color="#fff"/><stop offset=".125" stop-color="#fff" stop-opacity=".098039"/><stop offset=".92500001" stop-color="#fff" stop-opacity=".098039"/><stop offset="1" stop-opacity=".498039"/></linearGradient><linearGradient id="b" gradientTransform="matrix(0 -.02997086 -.02997 0 15.739288 13.625372)" gradientUnits="userSpaceOnUse" x1="512" x2="-.000001" y1="397.99393" y2="125.99394"><stop offset="0" stop-color="#d24625"/><stop offset="1" stop-color="#ec532f"/></linearGradient><path d="m4.1621983.39685624c-.5881821 0-1.0513178.0135407-1.4323996.0775109-.3810844.06396888-.6929229.18395549-.9213476.41184075-.2284221.22788551-.3489841.53958351-.4123566.92082881-.0633726.3812456-.0757439.8453924-.0728601 1.4349839v3.239953 3.2415032c-.00286.5886862.00955 1.0525972.07286 1.4334332.063373.381246.1839345.692944.4123566.920829.2284247.227885.5402632.347873.9213476.411841.3810845.06397.8442175.07751 1.4323996.07751h4.3757445c.5881822 0 1.0510743-.01352 1.4313683-.07751.380293-.064.691179-.18439.91876-.412357.227583-.227967.347433-.539443.411324-.920313.06389-.380867.07751-.844073.07751-1.4334332v-3.2415032-3.2415031c0-.5893606-.01362-1.0525645-.07751-1.4334338-.063891-.3808691-.183741-.6923443-.411324-.9203121-.227581-.22796755-.538467-.3483608-.9187599-.41235745-.380294-.06399692-.8431861-.07751091-1.4313683-.07751091z" opacity=".1"/><path d="m4.1621983.13228592c-.5880975 0-1.0515929.0141042-1.4323996.0780276-.3812749.0640012-.692825.18385574-.9213476.41184075-.2285623.22802655-.3489576.53890093-.4123566.92031213-.0633144.3808966-.0757439.8449217-.0728601 1.4344672v3.2404697 3.2415032c-.00286.5889345.00958 1.0528015.07286 1.4334335.063399.381412.1837917.692285.4123566.920313.2285253.227983.54007.347839.9213476.411841.3808067.06392.8443021.07803 1.4323996.07803h4.3757445c.5880922 0 1.0508333-.01408 1.4308493-.07803.380442-.06402.691478-.183652.919279-.411841.227723-.228107.347404-.539258.411324-.920313.06386-.38069.07751-.844227.07751-1.4334335v-3.2415032-3.2415031c0-.5892071-.01365-1.0527452-.07751-1.4334338-.06392-.3810543-.183601-.69220356-.411324-.92031212-.227801-.22818688-.538837-.34781897-.919279-.41184075-.380016-.0639501-.8427571-.0780276-1.4308493-.0780276z" fill="url(#b)"/><path d="m4.162574.26457108c-.5859201 0-1.0443173.0144588-1.4106969.0759605-.3663796.061501-.6470093.17311844-.8495194.37515254-.20251.2020341-.3142566.48213758-.3751528.84848518-.060896.3663479-.074183.8250345-.07131 1.4122476v3.2409864 3.2415032c-.00286.5869055.010424 1.0455175.07131 1.4117305.060896.366348.1726401.646451.3751528.848485s.4831371.313651.8495194.375153c.3663796.0615.8247768.07596 1.4106969.07596h4.3757445c.5859174 0 1.0436086-.01445 1.4091466-.07596.3655385-.06151.6457215-.173077.8474535-.375153.201732-.202073.313212-.482325.374634-.848485.06142-.36616.07545-.82463.07545-1.4117305v-3.2415032-3.2415031c0-.5871009-.01402-1.0455706-.07545-1.4117309-.0614196-.3661603-.1729016-.64641087-.3746336-.84848518-.201732-.20207432-.481915-.31363859-.8474535-.37515252-.365538-.0615137-.8232292-.0759605-1.4091466-.0759605z" fill="none" opacity=".3" stroke="url(#a)" stroke-width=".26457"/><g fill="#fff"><path d="m6.5169774 3.3071298-3.3422666.4955526v4.8309919l3.3195294.4940026h.3844551s-.00238-5.8205471 0-5.8205471zm-1.5739871 1.6215266c.2181753-.00463.4272705.026513.5973496.180342.3257998.3953445.2396478 1.1229383-.2433836 1.3595401-.1715923.087686-.3677501.07529-.55446.069243-.0007937.2955631-.00185.5911612-.00106.8867238-.14967-.01285-.2998904-.025626-.4495632-.037722-.0068-.8073175-.00855-1.5779495.0005292-2.3852668.2128574-.026521.4323978-.068229.6505731-.07286zm-.025319.4381946c-.059536-.00159-.1203663.00365-.1762092.0062-.00238.2539876-.00347.5074078.012408.7606397.1504268-.01814.3453014-.00344.4314772-.1591542.0718124-.1526946.076355-.3473927-.0098155-.4955526-.0628355-.0874027-.1586258-.1094734-.2578529-.1121324z" stroke-width=".35276"/><path d="m7.1437815 3.8362704v.7537376c.1232131-.026457.2588054-.080075.3968-.073414v.9637919s.6319447-.00228.96379 0c-.024949.3265556-.1640336.6742695-.4535477.8458625-.2675943.1799075-.6077021.1822257-.9070423.089248.0007937.1481591-.0007937.334071 0 .4822304h1.8141402v.3401621h-1.8141402v.3401618h1.8141402v.3401617h-1.8141402v.6803238h2.3811326v-4.7622658zm.5109621.5381474c.5253599.02419.9668272.4664074.994795.9902566-.3318453.00378-.663725.00233-.9955702.00233 0-.331091-.0007937-.662247.0007937-.9925816z" stroke-width=".35276"/><path d="m1.5878048 6.2174033v3.2415032c-.011456 2.3393385.2397774 2.5790445 2.5743935 2.5790445h4.3757445c2.3346162 0 2.5743932-.23968 2.5743932-2.5790445v-3.2415032z" opacity=".08"/><path d="m6.3500706.39685624v11.64109476h2.1878722c2.3346162 0 2.5743932-.23968 2.5743932-2.5790445v-3.2415032-3.2415031c0-2.3393652-.239777-2.57904396-2.5743932-2.57904396z" opacity=".08"/></g></svg>

<?xml version="1.0" encoding="UTF-8" standalone="no"?>
<svg
   xmlns:dc="http://purl.org/dc/elements/1.1/"
   xmlns:cc="http://creativecommons.org/ns#"
   xmlns:rdf="http://www.w3.org/1999/02/22-rdf-syntax-ns#"
   xmlns:svg="http://www.w3.org/2000/svg"
   xmlns="http://www.w3.org/2000/svg"
   xmlns:xlink="http://www.w3.org/1999/xlink"
   xmlns:sodipodi="http://sodipodi.sourceforge.net/DTD/sodipodi-0.dtd"
   xmlns:inkscape="http://www.inkscape.org/namespaces/inkscape"
   width="48"
   height="48"
   version="1.1"
   viewBox="0 0 12.699375 12.699376"
   id="svg39"
   sodipodi:docname="application-mspowerpoint.svg"
   inkscape:version="0.92.4 (5da689c313, 2019-01-14)">
  <metadata
     id="metadata43">
    <rdf:RDF>
      <cc:Work
         rdf:about="">
        <dc:format>image/svg+xml</dc:format>
        <dc:type
           rdf:resource="http://purl.org/dc/dcmitype/StillImage" />
        <dc:title></dc:title>
      </cc:Work>
    </rdf:RDF>
  </metadata>
  <sodipodi:namedview
     pagecolor="#ffffff"
     bordercolor="#666666"
     borderopacity="1"
     objecttolerance="10"
     gridtolerance="10"
     guidetolerance="10"
     inkscape:pageopacity="0"
     inkscape:pageshadow="2"
     inkscape:window-width="1920"
     inkscape:window-height="1016"
     id="namedview41"
     showgrid="false"
     inkscape:zoom="17.851067"
     inkscape:cx="24.000724"
     inkscape:cy="23.999997"
     inkscape:window-x="0"
     inkscape:window-y="27"
     inkscape:window-maximized="1"
     inkscape:current-layer="svg39" />
  <defs
     id="defs17">
    <linearGradient
       id="linearGradient4226"
       x1="529.65503"
       x2="-35.310001"
       y1="401.58401"
       y2="119.093"
       gradientTransform="matrix(0,-0.11988932,-0.11988589,0,67.016455,292.5483)"
       gradientUnits="userSpaceOnUse">
      <stop
         style="stop-color:#da1636"
         offset="0"
         id="stop2" />
      <stop
         style="stop-color:#f22c42"
         offset="1"
         id="stop4" />
    </linearGradient>
    <linearGradient
       id="linearGradient4358"
       x1="88"
       x2="488"
       y1="88"
       y2="488"
       gradientUnits="userSpaceOnUse">
      <stop
         style="stop-color:#000000;stop-opacity:.58823532"
         offset="0"
         id="stop7" />
      <stop
         style="stop-color:#000000;stop-opacity:0"
         offset=".88"
         id="stop9" />
      <stop
         style="stop-color:#000000"
         offset="1"
         id="stop11" />
    </linearGradient>
    <filter
       id="filter4346"
       width="1.026"
       height="1.022"
       x="-0.0099999998"
       y="-0.0099999998"
       style="color-interpolation-filters:sRGB">
      <feGaussianBlur
         stdDeviation="2.12"
         id="feGaussianBlur14" />
    </filter>
    <linearGradient
       gradientTransform="matrix(0.26457032,0,0,0.26457032,-84.661745,-16.006504)"
       inkscape:collect="always"
       xlink:href="#linearGradient927-3-6"
       id="linearGradient925"
       x1="344"
       y1="61"
       x2="344"
       y2="107"
       gradientUnits="userSpaceOnUse" />
    <linearGradient
       inkscape:collect="always"
       id="linearGradient927-3-6">
      <stop
         style="stop-color:#ffffff;stop-opacity:1;"
         offset="0"
         id="stop923-3" />
      <stop
         id="stop933-5"
         offset="0.125"
         style="stop-color:#ffffff;stop-opacity:0.09803922" />
      <stop
         id="stop931-6"
         offset="0.92500001"
         style="stop-color:#ffffff;stop-opacity:0.09803922" />
      <stop
         style="stop-color:#000000;stop-opacity:0.49803922"
         offset="1"
         id="stop925-2" />
    </linearGradient>
    <linearGradient
       inkscape:collect="always"
       xlink:href="#linearGradient4338-3"
       id="linearGradient951"
       gradientUnits="userSpaceOnUse"
       gradientTransform="matrix(0,-0.02997086,-0.02997,0,15.739288,13.625372)"
       x1="512"
       y1="397.99393"
       x2="-1.0000001e-06"
       y2="125.99394" />
    <linearGradient
       inkscape:collect="always"
       id="linearGradient4338-3">
      <stop
         style="stop-color:#d24625;stop-opacity:1"
         offset="0"
         id="stop4340-0" />
      <stop
         style="stop-color:#ec532f;stop-opacity:1"
         offset="1"
         id="stop4342-7" />
    </linearGradient>
  </defs>
  <path
     style="color:#000000;font-style:normal;font-variant:normal;font-weight:normal;font-stretch:normal;font-size:medium;line-height:normal;font-family:sans-serif;font-variant-ligatures:normal;font-variant-position:normal;font-variant-caps:normal;font-variant-numeric:normal;font-variant-alternates:normal;font-feature-settings:normal;text-indent:0;text-align:start;text-decoration:none;text-decoration-line:none;text-decoration-style:solid;text-decoration-color:#000000;letter-spacing:normal;word-spacing:normal;text-transform:none;writing-mode:lr-tb;direction:ltr;text-orientation:mixed;dominant-baseline:auto;baseline-shift:baseline;text-anchor:start;white-space:normal;shape-padding:0;clip-rule:nonzero;display:inline;overflow:visible;visibility:visible;opacity:0.1;isolation:auto;mix-blend-mode:normal;color-interpolation:sRGB;color-interpolation-filters:linearRGB;solid-color:#000000;solid-opacity:1;vector-effect:none;fill:#000000;fill-opacity:1;fill-rule:nonzero;stroke:none;stroke-width:0.52914065;stroke-linecap:butt;stroke-linejoin:miter;stroke-miterlimit:4;stroke-dasharray:none;stroke-dashoffset:0;stroke-opacity:1;marker:none;color-rendering:auto;image-rendering:auto;shape-rendering:auto;text-rendering:auto;enable-background:accumulate"
     d="m 4.1621983,0.39685624 c -0.5881821,0 -1.0513178,0.0135407 -1.4323996,0.0775109 C 2.3487143,0.53833602 2.0368758,0.65832263 1.8084511,0.88620789 1.580029,1.1140934 1.459467,1.4257914 1.3960945,1.8070367 1.3327219,2.1882823 1.3203506,2.6524291 1.3232344,3.2420206 v 3.239953 3.2415032 c -0.00286,0.5886862 0.00955,1.0525972 0.07286,1.4334332 0.063373,0.381246 0.1839345,0.692944 0.4123566,0.920829 0.2284247,0.227885 0.5402632,0.347873 0.9213476,0.411841 0.3810845,0.06397 0.8442175,0.07751 1.4323996,0.07751 h 4.3757445 c 0.5881822,0 1.0510743,-0.01352 1.4313683,-0.07751 0.380293,-0.064 0.691179,-0.18439 0.91876,-0.412357 0.227583,-0.227967 0.347433,-0.539443 0.411324,-0.920313 0.06389,-0.380867 0.07751,-0.844073 0.07751,-1.4334332 V 6.4819736 3.2404705 c 0,-0.5893606 -0.01362,-1.0525645 -0.07751,-1.4334338 C 11.235504,1.4261676 11.115654,1.1146924 10.888071,0.8867246 10.66049,0.65875705 10.349604,0.5383638 9.9693111,0.47436715 9.5890171,0.41037023 9.126125,0.39685624 8.5379428,0.39685624 Z"
     id="path1020"
     inkscape:connector-curvature="0"
     sodipodi:nodetypes="sccsccccccsscccscsccsss" />
  <path
     inkscape:connector-curvature="0"
     style="color:#000000;display:inline;overflow:visible;visibility:visible;fill:url(#linearGradient951);fill-opacity:1;fill-rule:nonzero;stroke:none;stroke-width:0.26457033;marker:none;enable-background:accumulate"
     d="m 4.1621983,0.13228592 c -0.5880975,0 -1.0515929,0.0141042 -1.4323996,0.0780276 C 2.3485238,0.27431472 2.0369737,0.39416926 1.8084511,0.62215427 1.5798888,0.85018082 1.4594935,1.1610552 1.3960945,1.5424664 1.3327801,1.923363 1.3203506,2.3873881 1.3232344,2.9769336 v 3.2404697 3.2415032 c -0.00286,0.5889345 0.00958,1.0528015 0.07286,1.4334335 0.063399,0.381412 0.1837917,0.692285 0.4123566,0.920313 0.2285253,0.227983 0.54007,0.347839 0.9213476,0.411841 0.3808067,0.06392 0.8443021,0.07803 1.4323996,0.07803 h 4.3757445 c 0.5880922,0 1.0508333,-0.01408 1.4308493,-0.07803 0.380442,-0.06402 0.691478,-0.183652 0.919279,-0.411841 0.227723,-0.228107 0.347404,-0.539258 0.411324,-0.920313 0.06386,-0.38069 0.07751,-0.844227 0.07751,-1.4334335 V 6.2174033 2.9759002 c 0,-0.5892071 -0.01365,-1.0527452 -0.07751,-1.4334338 C 11.235475,1.1614121 11.115794,0.85026284 10.888071,0.62215428 10.66027,0.3939674 10.349234,0.27433531 9.968792,0.21031353 9.588776,0.14636343 9.1260349,0.13228593 8.5379427,0.13228593 Z"
     id="path949" />
  <path
     id="path901"
     d="m 4.162574,0.26457108 c -0.5859201,0 -1.0443173,0.0144588 -1.4106969,0.0759605 -0.3663796,0.061501 -0.6470093,0.17311844 -0.8495194,0.37515254 -0.20251,0.2020341 -0.3142566,0.48213758 -0.3751528,0.84848518 -0.060896,0.3663479 -0.074183,0.8250345 -0.07131,1.4122476 v 3.2409864 3.2415032 c -0.00286,0.5869055 0.010424,1.0455175 0.07131,1.4117305 0.060896,0.366348 0.1726401,0.646451 0.3751528,0.848485 0.2025127,0.202034 0.4831371,0.313651 0.8495194,0.375153 0.3663796,0.0615 0.8247768,0.07596 1.4106969,0.07596 h 4.3757445 c 0.5859174,0 1.0436086,-0.01445 1.4091466,-0.07596 0.3655385,-0.06151 0.6457215,-0.173077 0.8474535,-0.375153 0.201732,-0.202073 0.313212,-0.482325 0.374634,-0.848485 0.06142,-0.36616 0.07545,-0.82463 0.07545,-1.4117305 V 6.2174033 2.9759002 c 0,-0.5871009 -0.01402,-1.0455706 -0.07545,-1.4117309 C 11.108133,1.198009 10.996651,0.91775843 10.794919,0.71568412 10.593187,0.5136098 10.313004,0.40204553 9.9474655,0.3405316 9.5819275,0.2790179 9.1242363,0.2645711 8.5383189,0.2645711 Z"
     style="color:#000000;display:inline;overflow:visible;visibility:visible;opacity:0.3;fill:none;fill-opacity:1;fill-rule:nonzero;stroke:url(#linearGradient925);stroke-width:0.26457033;stroke-opacity:1;marker:none;enable-background:accumulate"
     inkscape:connector-curvature="0" />
  <path
     inkscape:connector-curvature="0"
     id="path1309"
     d="M 6.5169774,3.3071298 3.1747108,3.8026824 v 4.8309919 l 3.3195294,0.4940026 h 0.3844551 c 0,0 -0.00238,-5.8205471 0,-5.8205471 z M 4.9429903,4.9286564 c 0.2181753,-0.00463 0.4272705,0.026513 0.5973496,0.180342 0.3257998,0.3953445 0.2396478,1.1229383 -0.2433836,1.3595401 -0.1715923,0.087686 -0.3677501,0.07529 -0.55446,0.069243 -7.937e-4,0.2955631 -0.00185,0.5911612 -0.00106,0.8867238 -0.14967,-0.01285 -0.2998904,-0.025626 -0.4495632,-0.037722 -0.0068,-0.8073175 -0.00855,-1.5779495 5.292e-4,-2.3852668 0.2128574,-0.026521 0.4323978,-0.068229 0.6505731,-0.07286 z M 4.9176713,5.366851 c -0.059536,-0.00159 -0.1203663,0.00365 -0.1762092,0.0062 -0.00238,0.2539876 -0.00347,0.5074078 0.012408,0.7606397 0.1504268,-0.01814 0.3453014,-0.00344 0.4314772,-0.1591542 C 5.2571597,5.8218419 5.2617023,5.6271438 5.1755318,5.4789839 5.1126963,5.3915812 5.016906,5.3695105 4.9176789,5.3668515 Z"
     style="display:inline;fill:#ffffff;stroke-width:0.3527604;enable-background:new" />
  <path
     sodipodi:nodetypes="cccccccccccccccccccccccc"
     inkscape:connector-curvature="0"
     id="path965"
     d="M 7.1437815,3.8362704 V 4.590008 c 0.1232131,-0.026457 0.2588054,-0.080075 0.3968,-0.073414 v 0.9637919 c 0,0 0.6319447,-0.00228 0.96379,0 -0.024949,0.3265556 -0.1640336,0.6742695 -0.4535477,0.8458625 -0.2675943,0.1799075 -0.6077021,0.1822257 -0.9070423,0.089248 7.937e-4,0.1481591 -7.937e-4,0.334071 0,0.4822304 H 8.9579217 V 7.2378889 H 7.1437815 V 7.5780507 H 8.9579217 V 7.9182124 H 7.1437815 V 8.5985362 H 9.5249141 V 3.8362704 Z m 0.5109621,0.5381474 c 0.5253599,0.02419 0.9668272,0.4664074 0.994795,0.9902566 -0.3318453,0.00378 -0.663725,0.00233 -0.9955702,0.00233 0,-0.331091 -7.937e-4,-0.662247 7.937e-4,-0.9925816 z"
     style="display:inline;fill:#ffffff;fill-opacity:1;stroke-width:0.3527604;enable-background:new" />
  <path
     style="color:#000000;display:inline;overflow:visible;visibility:visible;opacity:0.07999998;fill:#ffffff;fill-opacity:1;fill-rule:nonzero;stroke:none;stroke-width:0.26457033;marker:none;enable-background:accumulate"
     d="m 1.5878048,6.2174033 v 3.2415032 c -0.011456,2.3393385 0.2397774,2.5790445 2.5743935,2.5790445 h 4.3757445 c 2.3346162,0 2.5743932,-0.23968 2.5743932,-2.5790445 V 6.2174033 Z"
     id="path1006"
     inkscape:connector-curvature="0" />
  <path
     style="color:#000000;display:inline;overflow:visible;visibility:visible;opacity:0.07999998;fill:#ffffff;fill-opacity:1;fill-rule:nonzero;stroke:none;stroke-width:0.26457033;marker:none;enable-background:accumulate"
     d="M 6.3500706,0.39685624 V 12.037951 h 2.1878722 c 2.3346162,0 2.5743932,-0.23968 2.5743932,-2.5790445 V 6.2174033 2.9759002 c 0,-2.3393652 -0.239777,-2.57904396 -2.5743932,-2.57904396 z"
     id="path1013"
     inkscape:connector-curvature="0" />
</svg>
